lib/brands/icons/c.svg

<svg xmlns="http://www.w3.org/2000/svg" fill="none" aria-hidden="true" viewBox="0 0 48 48"><g id="c-Icon"><g id="Group"><path id="Vector" fill="#A9B9CB" d="M39.9984 16.584C39.9981 15.9786 39.8688 15.4438 39.6073 14.9848C39.3504 14.5333 38.9655 14.155 38.4495 13.8558C34.1894 11.397 29.9251 8.94575 25.6665 6.4845C24.5184 5.82113 23.4051 5.84525 22.2655 6.51825C20.5699 7.51925 12.0804 12.3878 9.55063 13.8544C8.50888 14.4581 8.00188 15.382 8.00163 16.5829C8 21.5276 8.00163 26.4721 8 31.417C8.00025 32.009 8.12413 32.5335 8.37413 32.9858C8.63113 33.4508 9.02125 33.8395 9.54925 34.1455C12.0791 35.6121 20.5698 40.4803 22.265 41.4815C23.4051 42.1549 24.5184 42.1789 25.6669 41.5153C29.9256 39.0539 34.1901 36.6028 38.4509 34.144C38.9789 33.8381 39.369 33.4491 39.626 32.9845C39.8756 32.5323 39.9998 32.0078 40 31.4156C40 31.4156 40 21.5289 39.9984 16.584Z"/><path id="Vector_2" fill="#7F8B99" d="M25.6376 6.51674C24.4914 5.85499 23.38 5.87912 22.2423 6.55037C20.5494 7.54874 12.0738 12.4046 9.54813 13.8675C8.508 14.4696 8.00188 15.3911 8.00163 16.5889C8 21.5208 8.00163 26.4525 8 31.3845C8.00025 31.975 8.12388 32.4981 8.3735 32.9491C8.63013 33.413 9.01963 33.8008 9.54675 34.1059C10.1254 34.441 11.0166 34.9544 12.0666 35.5584L35.4531 12.1719C32.1809 10.2876 28.9078 8.40487 25.6376 6.51674Z"/><path id="Vector_3" fill="white" d="M27.307 21.746L32.2869 21.7811C32.2869 19.7063 30.1866 14.625 24.1653 14.625C20.3289 14.625 15.1714 17.064 15.1714 24.0763C15.1714 31.0884 20.2273 33.375 24.1653 33.375C30.5424 33.375 32.0665 28.9623 32.0665 26.4685L27.3156 26.1969C27.3156 26.1969 27.4428 29.0813 24.1399 29.0813C21.0911 29.0813 20.5824 25.3465 20.5824 24.0763C20.5824 22.1454 21.269 19.0458 24.1399 19.0458C27.0109 19.0458 27.307 21.746 27.307 21.746Z"/></g></g></svg>

<svg xmlns="http://www.w3.org/2000/svg" fill="none" aria-hidden="true" viewBox="0 0 48 48"><path fill="#A9B9CB" d="M39.998 16.584c0-.605-.13-1.14-.39-1.6-.258-.45-.642-.829-1.158-1.128-4.26-2.459-8.525-4.91-12.784-7.372-1.148-.663-2.26-.639-3.4.034C20.57 7.52 12.08 12.388 9.55 13.854 8.509 14.458 8 15.382 8 16.583v14.834c0 .592.124 1.116.374 1.569.257.465.647.854 1.175 1.16 2.53 1.466 11.02 6.334 12.716 7.335 1.14.674 2.253.698 3.402.034 4.259-2.461 8.523-4.912 12.784-7.371.528-.306.918-.695 1.175-1.16.25-.452.374-.976.374-1.568 0 0 0-9.887-.002-14.832Z"/><path fill="#7F8B99" d="M25.638 6.517c-1.147-.662-2.258-.638-3.396.033-1.693.999-10.168 5.855-12.694 7.317-1.04.603-1.546 1.524-1.546 2.722C8 21.52 8.002 26.453 8 31.385c0 .59.124 1.113.373 1.564.257.464.647.852 1.174 1.157.578.335 1.47.848 2.52 1.452l23.386-23.386c-3.272-1.884-6.545-3.767-9.815-5.655Z"/><path fill="#fff" d="m27.307 21.746 4.98.035c0-2.075-2.1-7.156-8.122-7.156-3.836 0-8.994 2.439-8.994 9.451 0 7.012 5.056 9.299 8.994 9.299 6.377 0 7.901-4.413 7.901-6.907l-4.75-.271s.127 2.884-3.176 2.884c-3.049 0-3.558-3.735-3.558-5.005 0-1.93.687-5.03 3.558-5.03 2.87 0 3.167 2.7 3.167 2.7Z"/></svg>
